X: 25999
T: Mayor Harrison's Fedora
R: reel
M: 4/4
K: Edorian
|:G2 GF GABc|dBAG FDDA|Be (3eee edef|
gefd e2 (3ABc|dcdB AGFA|GEFD EFGA|
dedB AGFA|1 GEFD E2 (3DEF:|2 GEFD ~E3 F||

